X:1
T: Child of my Heart
C:
R:Jig
Q:180
K:C
M:6/8
L:1/16
c2|e4d2 c4A2|G2E2E2 c4d2|e4d2 c4A2|G2E2A2 G2E2D2|e4d2 c4A2|G2E2E2 c4d2|e2d2c2 d2c2A2|G2E2A2 G2E2D2|
e4d2 c4A2|G2E2E2 c4d2|e4d2 c4A2|G2E2A2 G2E2D2|e4d2 c4A2|G2E2E2 c4d2|e2d2c2 d2c2A2|G2E2A2 G2E2D2|
A2B2A2 A2G2E2|c6 D2E2D2|A2B2A2 A2G2E2|G2E2D2 D2E2D2|A2B2A2 A2G2E2|c6 c4d2|e2d2c2 d2c2A2|G2E2A2 G2E2D2|
A2B2A2 A2G2E2|c6 D2E2D2|A2B2A2 A2G2E2|G2E2D2 D2E2D2|A2B2A2 A2G2E2|c6 c4d2|e2d2c2 d2c2A2|G2E2A2 G2E2D2||
